!!!!SEGMENT: pl-sa--l-1643--054_anonim--ecce-nomen-domini.krn
!!!cenid: 16xx:1412
!!!COM: Anonim
!!!COM-rismid: pe30004985
!!!CDT:
!!!CNT:
!!!OTL: Ecce nomen Domini
!!!PDT:
!!!AGN: Sacred
!!!SMS-siglum: PL-SA
!!!SMS-shelfmark: L 1643
!!!SMS-shelfwork: 054 W
!!!SMS-variant:
!!!SMS-altvar:
!!!NIFC-rismid: 1001064073
!!!URL-scan: http://repozytorium.nifc.pl/skany/pl-sa-nut--l1643
!!!ONB-nifc: UWAGA: 8 ksiąg. Primi chori: 1mus Cantus (88), C 2dus (87), C 3tius (84-85), Bassus (82-83); Secondi chori: Primus Cantus (81), C 2dus (84), Altus (82), Bassus (83). UWAGA: Nie dodawać pustych linii, chyba że w rękopisie pojawiają się dodatkowe oznaczenia dotyczące pełnej obsady (a 4, a 8 itp.)
!!!key:
**kern	**text	**kern	**text	**kern	**text	**kern	**text	**kern	**text	**kern	**text	**kern	**text	**kern	**text
*part8	*part8	*part7	*part7	*part6	*part6	*part5	*part5	*part4	*part4	*part3	*part3	*part2	*part2	*part1	*part1
*staff8	*staff8	*staff7	*staff7	*staff6	*staff6	*staff5	*staff5	*staff4	*staff4	*staff3	*staff3	*staff2	*staff2	*staff1	*staff1
*Iempty	*	*Iempty	*	*Iempty	*	*Iempty	*	*Iempty	*	*Iempty	*	*Iempty	*	*Iempty	*
*I"Baſsus 2di Chori.	*	*I"Altus secundi Chori.	*	*I"Cantus 2dus Secundi Chori.	*	*I"Primus Cantus 2di Chori	*	*I"Bassus Primi Chori.	*	*I"Cantus 3tius Primi Chori	*	*I"Cantus 2dus Primi Chori.	*	*I"Im(us) Cantus Primi Chori	*
*I'Coro 2 B	*	*I'Coro 2 A	*	*I'Coro 2 S 2	*	*I'Coro 2 S 1	*	*I'Coro 1 B	*	*I'Coro 1 S 3	*	*I'Coro 1 S 2	*	*I'Coro 1 S 1	*
*clefC3	*	*clefC2	*	*clefC1	*	*clefG2	*	*clefC3	*	*clefC2	*	*clefC1	*	*clefG2	*
*k[]	*	*k[]	*	*k[]	*	*k[]	*	*k[]	*	*k[]	*	*k[]	*	*k[]	*
*G:	*	*G:	*	*G:	*	*G:	*	*G:	*	*G:	*	*G:	*	*G:	*
*M2/2	*	*M2/2	*	*M2/2	*	*M2/2	*	*M2/2	*	*M2/2	*	*M2/2	*	*M2/2	*
*met(c|)	*	*met(c|)	*	*met(c|)	*	*met(c|)	*	*met(c|)	*	*met(c|)	*	*met(c|)	*	*met(c|)	*
=1-	=1-	=1-	=1-	=1-	=1-	=1-	=1-	=1-	=1-	=1-	=1-	=1-	=1-	=1-	=1-
!!LO:TX:t=P:problem:oddech/cezura na różnej wysokości:global
!	!	!	!	!LO:TX:t=Pro Aduentu D(omi)ni:color=red	!	!LO:TX:t=Pro Aduentu D(omi)ni.:color=red	!	!LO:TX:a:t=Intonatio.:color=red	!	!LO:TX:t=Pro Aduentu D(omi)ni.:color=red	!	!LO:TX:t=Pro Aduentu D(omi)ni:color=red	!	!LO:TX:a:t=Intonatio:color=red	!
00r	.	00r	.	00r	.	00r	.	00r	.	00r	.	00r	.	1.dd	Ec-
=2-	=2-	=2-	=2-	=2-	=2-	=2-	=2-	=2-	=2-	=2-	=2-	=2-	=2-	=2-	=2-
.	.	.	.	.	.	.	.	.	.	.	.	.	.	.	.
.	.	.	.	.	.	.	.	.	.	.	.	.	.	2cc\	-ce
=3-	=3-	=3-	=3-	=3-	=3-	=3-	=3-	=3-	=3-	=3-	=3-	=3-	=3-	=3-	=3-
.	.	.	.	.	.	.	.	.	.	.	.	.	.	2b/	no-
.	.	.	.	.	.	.	.	.	.	.	.	.	.	2b/	-men
=4-	=4-	=4-	=4-	=4-	=4-	=4-	=4-	=4-	=4-	=4-	=4-	=4-	=4-	=4-	=4-
.	.	.	.	.	.	.	.	.	.	.	.	.	.	2.a/	Do-
.	.	.	.	.	.	.	.	.	.	.	.	.	.	4a/	-mi-
=5-	=5-	=5-	=5-	=5-	=5-	=5-	=5-	=5-	=5-	=5-	=5-	=5-	=5-	=5-	=5-
1r	.	1r	.	1r	.	1r	.	1r	.	1r	.	1r	.	1g	-ni
=6-	=6-	=6-	=6-	=6-	=6-	=6-	=6-	=6-	=6-	=6-	=6-	=6-	=6-	=6-	=6-
1.g	Ve-	1.d	Ve-	1.b	Ve-	1.dd	Ve-	1.G	Ve-	1.g	Ve-	1.b	[V]e-	1.dd	Ve-
=7-	=7-	=7-	=7-	=7-	=7-	=7-	=7-	=7-	=7-	=7-	=7-	=7-	=7-	=7-	=7-
.	.	.	.	.	.	.	.	.	.	.	.	.	.	.	.
2c/	-nit	2g\	-nit	2g/	-nit	2cc\	-nit	2c/	-nit	2g\	-nit	2cc\	-nit	2ee\	-nit
=8-	=8-	=8-	=8-	=8-	=8-	=8-	=8-	=8-	=8-	=8-	=8-	=8-	=8-	=8-	=8-
2G/	de	2e/	de	2b\	de	2dd\	de	2g\	de	2g\	de	2b\	de	2gg\	de
2d\	lon-	2a\	lon-	2a\	lon-	2.dd\	lon-	2d\	lon-	1a\	lon-	1dd\	lon-	2ff\	lon-
=9-	=9-	=9-	=9-	=9-	=9-	=9-	=9-	=9-	=9-	=9-	=9-	=9-	=9-	=9-	=9-
1a	-gin-	1e	-gin-	1a	-gin-	.	.	1A	-gin-	.	.	.	.	1ee	-g(in-
.	.	.	.	.	.	8cc\L	-gin-	.	.	.	.	.	.	.	.
.	.	.	.	.	.	8b\J	.	.	.	.	.	.	.	.	.
!	!	!	!	!	!	!LO:TX:b:t=P:problem=# below	!	!	!	!	!	!	!	!	!
.	.	.	.	.	.	2cc#X\	.	.	.	2e/	-gin-	2a\	-gin-	.	.
=10-	=10-	=10-	=10-	=10-	=10-	=10-	=10-	=10-	=10-	=10-	=10-	=10-	=10-	=10-	=10-
!	!	!	!	!	!	!	!	!	!	!LO:TX:b:t=P:problem=# below	!	!	!	!	!
1d	-quo,	1a	-quo	1a	-quo	1dd	-quo.	1d	-quo	1f#X	-quo	1a	-quo,	1dd	-quo)
=11-	=11-	=11-	=11-	=11-	=11-	=11-	=11-	=11-	=11-	=11-	=11-	=11-	=11-	=11-	=11-
!	!	!	!	!	!	!	!	!LO:TX:b:t=Intonatio.:color=red	!	!LO:TX:b:t=Intonatio:color=red	!	!LO:TX:b:t=Intona\ntio:color=red	!	!	!
00r	.	00r	.	00r	.	00r	.	00r	.	00r	.	00r	.	1.gg	Ec-
=12-	=12-	=12-	=12-	=12-	=12-	=12-	=12-	=12-	=12-	=12-	=12-	=12-	=12-	=12-	=12-
.	.	.	.	.	.	.	.	.	.	.	.	.	.	.	.
.	.	.	.	.	.	.	.	.	.	.	.	.	.	2ff\	-ce
=13-	=13-	=13-	=13-	=13-	=13-	=13-	=13-	=13-	=13-	=13-	=13-	=13-	=13-	=13-	=13-
.	.	.	.	.	.	.	.	.	.	.	.	.	.	2ee\	no-
!	!	!	!	!	!	!	!	!	!	!	!	!	!	!LO:SIC:v:t=custos dd	!
.	.	.	.	.	.	.	.	.	.	.	.	.	.	2ee\	-men
=14-	=14-	=14-	=14-	=14-	=14-	=14-	=14-	=14-	=14-	=14-	=14-	=14-	=14-	=14-	=14-
!	!	!	!	!	!	!	!	!	!	!	!	!	!	!LO:LB:g=original	!
.	.	.	.	.	.	.	.	.	.	.	.	.	.	2.dd\	Do-
.	.	.	.	.	.	.	.	.	.	.	.	.	.	4dd\	-mi-
=15-	=15-	=15-	=15-	=15-	=15-	=15-	=15-	=15-	=15-	=15-	=15-	=15-	=15-	=15-	=15-
00r	.	00r	.	00r	.	00r	.	00r	.	00r	.	00r	.	2cc\	-ni
.	.	.	.	.	.	.	.	.	.	.	.	.	.	1ee\	Ve-
=16-	=16-	=16-	=16-	=16-	=16-	=16-	=16-	=16-	=16-	=16-	=16-	=16-	=16-	=16-	=16-
.	.	.	.	.	.	.	.	.	.	.	.	.	.	.	.
.	.	.	.	.	.	.	.	.	.	.	.	.	.	2ee\	-nit
=17-	=17-	=17-	=17-	=17-	=17-	=17-	=17-	=17-	=17-	=17-	=17-	=17-	=17-	=17-	=17-
.	.	.	.	.	.	.	.	.	.	.	.	.	.	2cc\	de
.	.	.	.	.	.	.	.	.	.	.	.	.	.	2cc\	lon-
=18-	=18-	=18-	=18-	=18-	=18-	=18-	=18-	=18-	=18-	=18-	=18-	=18-	=18-	=18-	=18-
.	.	.	.	.	.	.	.	.	.	.	.	.	.	1dd	-gin-
=19-	=19-	=19-	=19-	=19-	=19-	=19-	=19-	=19-	=19-	=19-	=19-	=19-	=19-	=19-	=19-
!	!	!	!	!	!	!	!	!	!	!	!	!LO:SIC:v:t=custos b	!	!	!
1r	.	1r	.	1r	.	1r	.	1r	.	1r	.	1r	.	1cc,	-quo,
=20-	=20-	=20-	=20-	=20-	=20-	=20-	=20-	=20-	=20-	=20-	=20-	=20-	=20-	=20-	=20-
!	!	!	!	!	!	!	!	!	!	!	!	!LO:LB:g=original	!	!	!
1g	et	1d	et	1b	et	1dd	et	1G	Et	1g	Et	1b	Et	1dd	et
=21-	=21-	=21-	=21-	=21-	=21-	=21-	=21-	=21-	=21-	=21-	=21-	=21-	=21-	=21-	=21-
!	!	!LO:TX:t=P:problem=2g poprawione na 1g	!	!	!	!	!	!	!	!	!	!	!	!	!
2.c/	cla-	1g	cla-	2.cc\	cla-	2.ccny\	cla-	2.c/	cla-	2.g\	cla-	2.g/	cla-	2.ee\	cla-
4c/	-ri-	.	.	4cc\	-ri-	4cc\	-ri-	4c/	-ri-	4g\	-[ri]-	4g/	-ri-	4ee\	-ri-
=22-	=22-	=22-	=22-	=22-	=22-	=22-	=22-	=22-	=22-	=22-	=22-	=22-	=22-	=22-	=22-
!LO:SIC:v:t=custos c	!	!	!	!	!	!	!	!	!	!	!	!	!	!	!
1G	-tas	2g\	-ri-	1b	-tas	1dd	-tas	1g	-tas	1g	-tas	1b	-tas	1dd	-tas
!	!	!LO:SIC:v:t=custos g	!	!	!	!	!	!	!	!	!	!	!	!	!
.	.	2d/	-tas	.	.	.	.	.	.	.	.	.	.	.	.
=23-	=23-	=23-	=23-	=23-	=23-	=23-	=23-	=23-	=23-	=23-	=23-	=23-	=23-	=23-	=23-
!LO:LB:g=original	!	!LO:LB:g=original	!	!	!	!	!	!LO:SIC:v:t=custos G	!	!	!	!	!	!	!
1c	e-	1g	e-	1cc	e-	1ee	e-	1c	e-	1g	e-	1g	e-	1cc	e-
=24-	=24-	=24-	=24-	=24-	=24-	=24-	=24-	=24-	=24-	=24-	=24-	=24-	=24-	=24-	=24-
!	!	!	!	!	!	!LO:SIC:v:t=custos ee	!	!LO:LB:g=original	!	!	!	!	!	!	!
2g\	-ius	2g\	-ius	2b\	-ius	2dd\	-ius	2G/	-ius	2g\	-ius	2b\	-ius	2dd\	-ius
!	!	!	!	!LO:SIC:v:t=custos cc	!	!LO:LB:g=original	!	!	!	!LO:SIC:v:t=custos g	!	!	!	!	!
2c/	re-	2g\	re-	2cc\	re-	2ee\	re-	2r	.	2r	.	2r	.	2r	.
!!linebreak:original
=25-	=25-	=25-	=25-	=25-	=25-	=25-	=25-	=25-	=25-	=25-	=25-	=25-	=25-	=25-	=25-
!	!	!	!	!LO:LB:g=original	!	!	!	!	!	!LO:LB:g=original	!	!	!	!	!
1f	-ple-	1a	-ple-	1cc	-ple-	1ff	-ple-	1r	.	1r	.	1r	.	1r	.
=26-	=26-	=26-	=26-	=26-	=26-	=26-	=26-	=26-	=26-	=26-	=26-	=26-	=26-	=26-	=26-
2c/	-bit,	2g\	-bit.	2cc\	-bit	2ee\	-bit	2r	.	2r	.	2r	.	2r	.
2r	.	2r	.	2r	.	2r	.	2c/	or-	2g\	or-	2b\	or-	2ee\	or-
=27-	=27-	=27-	=27-	=27-	=27-	=27-	=27-	=27-	=27-	=27-	=27-	=27-	=27-	=27-	=27-
0r	.	0r	.	0r	.	0r	.	2f\	-bem	2a\	-bem	2cc\	-bem	2ff\	-bem
.	.	.	.	.	.	.	.	2d\	ter-	2a\	ter-	1dd\	ter-	2ff\	ter-
=28-	=28-	=28-	=28-	=28-	=28-	=28-	=28-	=28-	=28-	=28-	=28-	=28-	=28-	=28-	=28-
.	.	.	.	.	.	.	.	1A	-ra-	1a	-ra-	.	.	1ee	-ra-
!	!	!	!	!	!	!	!	!	!	!	!	!LO:TX:b:t=P:problem=# below	!	!	!
.	.	.	.	.	.	.	.	.	.	.	.	2cc#X\	-ra-	.	.
=29-	=29-	=29-	=29-	=29-	=29-	=29-	=29-	=29-	=29-	=29-	=29-	=29-	=29-	=29-	=29-
2r	.	2r	.	2r	.	2r	.	2d\	-rum	2a\	-rum	2dd\	-rum	2dd\	-rum
2g\	re-	2g\	re-	2b\	re-	2dd\	re-	2r	.	2r	.	2r	.	2r	.
=30-	=30-	=30-	=30-	=30-	=30-	=30-	=30-	=30-	=30-	=30-	=30-	=30-	=30-	=30-	=30-
!	!	!	!	!	!	!	!	!	!	!	!	!	!	!LO:SIC:v:t=custos dd	!
4c/	-ple-	1g	-ple-	1cc	-ple-	1ee	-ple-	1r	.	1r	.	1r	.	1r	.
4d\	.	.	.	.	.	.	.	.	.	.	.	.	.	.	.
4e\	.	.	.	.	.	.	.	.	.	.	.	.	.	.	.
4f\	.	.	.	.	.	.	.	.	.	.	.	.	.	.	.
=31-	=31-	=31-	=31-	=31-	=31-	=31-	=31-	=31-	=31-	=31-	=31-	=31-	=31-	=31-	=31-
!	!	!	!	!	!	!	!	!	!	!	!	!	!	!LO:LB:g=original	!
2g\	-bit	2g\	-bit	2b\	-bit	2dd\	-bit	2r	.	2r	.	2r	.	2r	.
2r	.	2r	.	2r	.	2r	.	2G/	or-	2g\	or-	2b\	or-	2dd\	or-
=32-	=32-	=32-	=32-	=32-	=32-	=32-	=32-	=32-	=32-	=32-	=32-	=32-	=32-	=32-	=32-
0r	.	0r	.	0r	.	0r	.	2c/	-bem	2g\	-bem	2ccny\	-bem	2ee\	-bem
.	.	.	.	.	.	.	.	2G/	ter-	2g\	ter-	2dd\	ter-	2gg\	ter-
=33-	=33-	=33-	=33-	=33-	=33-	=33-	=33-	=33-	=33-	=33-	=33-	=33-	=33-	=33-	=33-
!	!	!	!	!	!	!	!	!	!	!	!	!	!	!LO:TX:b:t=P:problem=# below	!
.	.	.	.	.	.	.	.	1d	-ra-	1a	-ra-	1dd	-ra-	1ff#X	-ra-
=34-	=34-	=34-	=34-	=34-	=34-	=34-	=34-	=34-	=34-	=34-	=34-	=34-	=34-	=34-	=34-
2r	.	2r	.	2r	.	2r	.	2G/	-rum	2g\	-rum	2dd\	-rum	2gg\	-rum
!	!	!	!	!	!	!	!	!	!	!	!	!LO:SIC:v:t=custos cc	!	!	!
2d\	re-	2a\	re-	1dd\	re-	2ff\	re-	2r	.	2r	.	2r	.	2r	.
=35-	=35-	=35-	=35-	=35-	=35-	=35-	=35-	=35-	=35-	=35-	=35-	=35-	=35-	=35-	=35-
!	!	!	!	!	!	!	!	!	!	!	!	!LO:LB:g=original	!	!	!
1A	-ple-	1a	-ple-	.	.	1ee	-ple-	1r	.	1r	.	1r	.	1r	.
!	!	!	!	!LO:TX:b:t=P:problem=# below	!	!	!	!	!	!	!	!	!	!	!
.	.	.	.	2cc#X\	-ple-	.	.	.	.	.	.	.	.	.	.
=36-	=36-	=36-	=36-	=36-	=36-	=36-	=36-	=36-	=36-	=36-	=36-	=36-	=36-	=36-	=36-
2d\	-bit	2a\	-bit	2dd\	-bit	2dd\	-bit	2r	.	2r	.	2r	.	2r	.
2r	.	2r	.	2r	.	2r	.	2c/	or-	2e/	or-	2cc\	Or-	2gg\	or-
=37-	=37-	=37-	=37-	=37-	=37-	=37-	=37-	=37-	=37-	=37-	=37-	=37-	=37-	=37-	=37-
0r	.	1r	.	0r	.	00r	.	2d\	-bem	2a\	-bem	2a\	-bem	2ffny\	-bem
.	.	.	.	.	.	.	.	2d\	ter-	2a\	ter-	1dd\	[t]er-	2ff\	ter-
=38-	=38-	=38-	=38-	=38-	=38-	=38-	=38-	=38-	=38-	=38-	=38-	=38-	=38-	=38-	=38-
!	!	!	!	!	!	!	!	!LO:SIC:v:t=custos d	!	!	!	!	!	!	!
.	.	0r	.	.	.	.	.	1A	-ra-	1a	-ra-	.	.	1ee	-ra-
!	!	!	!	!	!	!	!	!	!	!	!	!LO:TX:b:t=P:problem=# below	!	!	!
.	.	.	.	.	.	.	.	.	.	.	.	2cc#X\	-ra-	.	.
=39-	=39-	=39-	=39-	=39-	=39-	=39-	=39-	=39-	=39-	=39-	=39-	=39-	=39-	=39-	=39-
!	!	!	!	!	!	!	!	!LO:PB:g=original	!	!	!	!	!	!	!
1r	.	.	.	1r	.	.	.	1d	-rum,	1a	-rum.	1dd	-rum.	1dd	-rum
=40-	=40-	=40-	=40-	=40-	=40-	=40-	=40-	=40-	=40-	=40-	=40-	=40-	=40-	=40-	=40-
!	!	!	!	!	!	!	!	!LO:TX:b:t=Intonatio.:color=red	!	!LO:TX:b:t=Intona\ntio.:color=red	!	!LO:TX:b:t=Intonatio:color=red	!	!	!
00r	.	00r	.	00r	.	.	.	00r	.	00r	.	00r	.	1.dd	Ec-
=41-	=41-	=41-	=41-	=41-	=41-	=41-	=41-	=41-	=41-	=41-	=41-	=41-	=41-	=41-	=41-
.	.	.	.	.	.	00r	.	.	.	.	.	.	.	.	.
.	.	.	.	.	.	.	.	.	.	.	.	.	.	2cc\	-ce
=42-	=42-	=42-	=42-	=42-	=42-	=42-	=42-	=42-	=42-	=42-	=42-	=42-	=42-	=42-	=42-
.	.	.	.	.	.	.	.	.	.	.	.	.	.	2b/	no-
.	.	.	.	.	.	.	.	.	.	.	.	.	.	2b/	-men
=43-	=43-	=43-	=43-	=43-	=43-	=43-	=43-	=43-	=43-	=43-	=43-	=43-	=43-	=43-	=43-
.	.	.	.	.	.	.	.	.	.	.	.	.	.	2.a/	Do-
.	.	.	.	.	.	.	.	.	.	.	.	.	.	4a/	-mi-
=44-	=44-	=44-	=44-	=44-	=44-	=44-	=44-	=44-	=44-	=44-	=44-	=44-	=44-	=44-	=44-
00r	.	00r	.	00r	.	.	.	00r	.	00r	.	00r	.	2g/	-ni
.	.	.	.	.	.	.	.	.	.	.	.	.	.	1gg\	Ve-
=45-	=45-	=45-	=45-	=45-	=45-	=45-	=45-	=45-	=45-	=45-	=45-	=45-	=45-	=45-	=45-
.	.	.	.	.	.	0r	.	.	.	.	.	.	.	.	.
!	!	!	!	!	!	!	!	!	!	!	!	!	!	!LO:SIC:v:t=custos cc	!
.	.	.	.	.	.	.	.	.	.	.	.	.	.	2ee\	-nit
=46-	=46-	=46-	=46-	=46-	=46-	=46-	=46-	=46-	=46-	=46-	=46-	=46-	=46-	=46-	=46-
!	!	!	!	!	!	!	!	!	!	!	!	!	!	!LO:LB:g=original	!
.	.	.	.	.	.	.	.	.	.	.	.	.	.	2cc\	de
.	.	.	.	.	.	.	.	.	.	.	.	.	.	2cc\	lon-
=47-	=47-	=47-	=47-	=47-	=47-	=47-	=47-	=47-	=47-	=47-	=47-	=47-	=47-	=47-	=47-
.	.	.	.	.	.	1r	.	.	.	.	.	.	.	1dd	-gin-
=48-	=48-	=48-	=48-	=48-	=48-	=48-	=48-	=48-	=48-	=48-	=48-	=48-	=48-	=48-	=48-
2r	.	2r	.	2r	.	2r	.	0r	.	0r	.	0r	.	2cc\	-quo,
2c/	et	2g\	et	2ccny\	et	2cc\	et	.	.	.	.	.	.	2r	.
=49-	=49-	=49-	=49-	=49-	=49-	=49-	=49-	=49-	=49-	=49-	=49-	=49-	=49-	=49-	=49-
2g\	di-	2g\	di-	2b\	di-	2dd\	di-	.	.	.	.	.	.	0r	.
!LO:SIC:v:t=custos c	!	!LO:SIC:v:t=custos g	!	!	!	!	!	!	!	!	!	!	!	!	!
2g\	-es	2g\	-es	2b\	-es	2dd\	-es	.	.	.	.	.	.	.	.
=50-	=50-	=50-	=50-	=50-	=50-	=50-	=50-	=50-	=50-	=50-	=50-	=50-	=50-	=50-	=50-
!LO:LB:g=original	!	!LO:LB:g=original	!	!	!	!	!	!	!	!	!	!	!	!	!
4c/	e-	1g	e-	1cc	e-	1ee	e-	1r	.	1r	.	1r	.	.	.
4d\	.	.	.	.	.	.	.	.	.	.	.	.	.	.	.
4e\	.	.	.	.	.	.	.	.	.	.	.	.	.	.	.
4f\	.	.	.	.	.	.	.	.	.	.	.	.	.	.	.
=51-	=51-	=51-	=51-	=51-	=51-	=51-	=51-	=51-	=51-	=51-	=51-	=51-	=51-	=51-	=51-
!	!	!	!	!	!	!	!	!	!	!LO:SIC:v:t=custos g	!	!	!	!	!
2g\	-ius	2g\	-ius,	2b\	-ius	2dd\	-ius	2r	.	2r	.	2r	.	2r	.
!	!	!	!	!	!	!	!	!	!	!LO:PB:g=original	!	!	!	!	!
2r	.	2r	.	2r	.	2r	.	2g\	Non	2g\	Non	2b\	non	2dd\	non
=52-	=52-	=52-	=52-	=52-	=52-	=52-	=52-	=52-	=52-	=52-	=52-	=52-	=52-	=52-	=52-
0r	.	0r	.	0r	.	0r	.	2c/	e-	2g\	e-	2ccny\	e-	2ee\	e-
.	.	.	.	.	.	.	.	2c/	-lon-	2g\	-lon-	2cc\	-lon-	2ee\	-lon-
=53-	=53-	=53-	=53-	=53-	=53-	=53-	=53-	=53-	=53-	=53-	=53-	=53-	=53-	=53-	=53-
.	.	.	.	.	.	.	.	2f\	-ga-	2a\	-ga-	2cc\	-ga-	2ff\	-ga-
.	.	.	.	.	.	.	.	2g\	-bun-	2g\	-bun-	2b\	-bun-	2dd\	-bun-
=54-	=54-	=54-	=54-	=54-	=54-	=54-	=54-	=54-	=54-	=54-	=54-	=54-	=54-	=54-	=54-
2r	.	2r	.	2r	.	2r	.	2c/	-tur	2g\	-tur	2cc\	-tur.	2ee\	-tur,
!	!	!	!	!	!	!LO:SIC:v:t=custos dd	!	!	!	!	!	!	!	!	!
2c/	et	2g\	et	2cc\	et	2ee\	et	2r	.	2r	.	2r	.	2r	.
=55-	=55-	=55-	=55-	=55-	=55-	=55-	=55-	=55-	=55-	=55-	=55-	=55-	=55-	=55-	=55-
!	!	!	!	!	!	!LO:LB:g=original	!	!	!	!	!	!	!	!LO:TX:t=P:problem=niewyraźne źródło	!
2G/	di-	2g\	di-	2b\	di-	2dd\	di-	0r	.	0r	.	0r	.	0r	.
!	!	!	!	!LO:SIC:v:t=custos cc	!	!	!	!	!	!	!	!	!	!	!
2c/	-es	2g\	-es	2cc\	-es	2ee\	-es	.	.	.	.	.	.	.	.
=56-	=56-	=56-	=56-	=56-	=56-	=56-	=56-	=56-	=56-	=56-	=56-	=56-	=56-	=56-	=56-
!	!	!	!	!LO:LB:g=original	!	!	!	!	!	!	!	!	!	!	!
1f	e-	1a	e-	1cc	e-	1ff	e-	.	.	.	.	.	.	.	.
=57-	=57-	=57-	=57-	=57-	=57-	=57-	=57-	=57-	=57-	=57-	=57-	=57-	=57-	=57-	=57-
2c/	-ius	2g\	-ius	2cc\	-ius	2ee\	-ius	2r	.	2r	.	2r	.	2r	.
2r	.	2r	.	2r	.	2r	.	2c/	non	2g\	non	2cc\	non	2ee\	non
=58-	=58-	=58-	=58-	=58-	=58-	=58-	=58-	=58-	=58-	=58-	=58-	=58-	=58-	=58-	=58-
0r	.	0r	.	0r	.	0r	.	2f\	e-	2a\	e-	2cc\	e-	2ff\	e-
!	!	!	!	!	!	!	!	!	!	!	!	!LO:SIC:v:t=custos cc	!	!	!
.	.	.	.	.	.	.	.	2c/	-lon-	2g\	-lon-	2cc\	-lon-	2gg\	-lon-
=59-	=59-	=59-	=59-	=59-	=59-	=59-	=59-	=59-	=59-	=59-	=59-	=59-	=59-	=59-	=59-
!	!	!	!	!	!	!	!	!	!	!	!	!LO:LB:g=original	!	!	!
.	.	.	.	.	.	.	.	2f\	-ga-	2a\	-ga-	2cc\	-ga-	2ff\	-ga-
.	.	.	.	.	.	.	.	2g\	-bun-	2g\	-bun-	2b\	-bun-	2dd\	-bun-
=60-	=60-	=60-	=60-	=60-	=60-	=60-	=60-	=60-	=60-	=60-	=60-	=60-	=60-	=60-	=60-
2r	.	2r	.	2r	.	2r	.	2c/	-tur.	2g\	-tur	2cc\	-tur,	2ee\	-tur.
2g\	et	2g\	et	2b\	et	2dd\	et	2r	.	2r	.	2r	.	2r	.
=61-	=61-	=61-	=61-	=61-	=61-	=61-	=61-	=61-	=61-	=61-	=61-	=61-	=61-	=61-	=61-
!	!	!	!	!	!	!	!	!	!	!	!	!	!	!LO:SIC:v:t=custos dd	!
2d\	di-	2a\	di-	2dd\	di-	2dd\	di-	0r	.	0r	.	0r	.	0r	.
2d\	-es	2a\	-es	1dd\	-es	2ff\	-es	.	.	.	.	.	.	.	.
=62-	=62-	=62-	=62-	=62-	=62-	=62-	=62-	=62-	=62-	=62-	=62-	=62-	=62-	=62-	=62-
1A	e-	1a	e-	.	.	1ee	e-	.	.	.	.	.	.	.	.
!	!	!	!	!LO:TX:b:t=P:problem=# below	!	!	!	!	!	!	!	!	!	!	!
.	.	.	.	2cc#X\	e-	.	.	.	.	.	.	.	.	.	.
!!pagebreak:original
=63-	=63-	=63-	=63-	=63-	=63-	=63-	=63-	=63-	=63-	=63-	=63-	=63-	=63-	=63-	=63-
!	!	!	!	!	!	!	!	!	!	!	!	!	!	!LO:LB:g=original	!
2d\	-ius,	2a\	-ius	2dd\	-ius.	2dd\	-ius,	2r	.	2r	.	2r	.	2r	.
!	!	!	!	!	!	!	!	!LO:SIC:v:t=custos c	!	!	!	!	!	!	!
2r	.	2r	.	2r	.	2r	.	2g\	non	2g\	non	2b\	non	2dd\	non
=64-	=64-	=64-	=64-	=64-	=64-	=64-	=64-	=64-	=64-	=64-	=64-	=64-	=64-	=64-	=64-
!	!	!	!	!	!	!	!	!LO:LB:g=original	!	!	!	!	!	!	!
0r	.	0r	.	0r	.	0r	.	2c/	e-	2g\	e-	2cc\	e-	2ee\	e-
.	.	.	.	.	.	.	.	2G/	-lon-	2g\	-lon-	2b\	-lon-	2gg\	-lon-
=65-	=65-	=65-	=65-	=65-	=65-	=65-	=65-	=65-	=65-	=65-	=65-	=65-	=65-	=65-	=65-
!	!	!	!	!	!	!	!	!	!	!	!	!	!	!LO:TX:b:t=P:problem=# below	!
.	.	.	.	.	.	.	.	2d\	-ga-	2a\	-ga-	2a\	-ga-	2ff#X\	-ga-
!	!	!	!	!	!	!	!	!	!	!LO:SIC:v:t=custos g	!	!	!	!	!
.	.	.	.	.	.	.	.	2d\	-bun-	2a\	-bun-	2a\	-bun-	2ff#\	-bun-
=66-	=66-	=66-	=66-	=66-	=66-	=66-	=66-	=66-	=66-	=66-	=66-	=66-	=66-	=66-	=66-
!	!	!	!	!	!	!	!	!	!	!LO:LB:g=original	!	!	!	!	!
2r	.	2r	.	2r	.	2r	.	2G,/	-tur,	2g\	-tur	2b\	-tur	2gg,\	-tur,
1f\	Al-	1f\	Al-	1a\	Al-	1cc\	Al-	1F/	Al-	1a\	Al-	1cc\	Al-	1ffny\	Al-
=67-	=67-	=67-	=67-	=67-	=67-	=67-	=67-	=67-	=67-	=67-	=67-	=67-	=67-	=67-	=67-
.	.	.	.	.	.	.	.	.	.	.	.	.	.	.	.
!LO:SIC:v:t=custos g	!	!	!	!	!	!	!	!	!	!	!	!	!	!	!
2c/	-le-	1g\	-l(e-	2ccny\	-le-	2cc\	-l(e-	2c/	-le-	2g\	-le-	2.cc\	-le-	2ee\	-le-
=68-	=68-	=68-	=68-	=68-	=68-	=68-	=68-	=68-	=68-	=68-	=68-	=68-	=68-	=68-	=68-
!LO:LB:g=original	!	!	!	!	!	!	!	!	!	!	!	!	!	!	!
1g	-lu-	.	.	1g	-lu-	1dd	-lu-	1G	-lu-	1g	-lu-	.	.	1dd	-lu-
.	.	.	.	.	.	.	.	.	.	.	.	8b\L	.	.	.
.	.	.	.	.	.	.	.	.	.	.	.	8a\J	.	.	.
.	.	2d/	-lu-	.	.	.	.	.	.	.	.	2b\	-lu-	.	.
=69-	=69-	=69-	=69-	=69-	=69-	=69-	=69-	=69-	=69-	=69-	=69-	=69-	=69-	=69-	=69-
!	!	!LO:SIC:v:t=custos g	!	!	!	!	!	!	!	!	!	!	!	!	!
1c	-ia.	1g	-i)a.	1cc	-ia.	1cc	-i)a.	1c	-ia.	1g	-ia	1cc	-ia	1ee	-ia.
=70-	=70-	=70-	=70-	=70-	=70-	=70-	=70-	=70-	=70-	=70-	=70-	=70-	=70-	=70-	=70-
*	*	*	*	*	*	*	*	*	*ij	*	*	*	*ij	*	*
!	!	!LO:LB:g=original	!	!	!	!	!	!	!	!	!	!	!	!	!
1g	Al-	1.g	Al-	1b	Al-	1dd	Al-	1G	Al-	1.g	Al-	1b	Al-	2r	.
.	.	.	.	.	.	.	.	.	.	.	.	.	.	2dd\	Al-
=71-	=71-	=71-	=71-	=71-	=71-	=71-	=71-	=71-	=71-	=71-	=71-	=71-	=71-	=71-	=71-
2c/	-l(e-	.	.	2cc\	-l(e-	2cc\	-l(e-	2c/	-le-	.	.	2g/	-le-	4ee\	.
.	.	.	.	.	.	.	.	.	.	.	.	.	.	4ff\	.
!	!	!	!	!	!	!	!	!	!	!	!	!LO:SIC:v:t=custos dd	!	!	!
2g\	.	2d/	-l(e-	2b\	.	2dd\	.	2G/	.	2g\	-l(e-	2b\	.	1gg\	-l(e-
*	*	*	*	*	*	*	*	*	*	*	*	*	*Xij	*	*
=72-	=72-	=72-	=72-	=72-	=72-	=72-	=72-	=72-	=72-	=72-	=72-	=72-	=72-	=72-	=72-
!	!	!	!	!	!	!	!	!	!	!	!	!LO:LB:g=original	!	!	!
0d	-lu-	0d	-lu-	0a	-lu-	0dd	-lu-	0d	-lu-	0a	-lu-	0dd	-lu-	.	.
.	.	.	.	.	.	.	.	.	.	.	.	.	.	4ff\	.
.	.	.	.	.	.	.	.	.	.	.	.	.	.	4ee\	.
=73-	=73-	=73-	=73-	=73-	=73-	=73-	=73-	=73-	=73-	=73-	=73-	=73-	=73-	=73-	=73-
.	.	.	.	.	.	.	.	.	.	.	.	.	.	1ff	-lu-
=74-	=74-	=74-	=74-	=74-	=74-	=74-	=74-	=74-	=74-	=74-	=74-	=74-	=74-	=74-	=74-
0g;	-i)a	0d;;	-i)a.	0b;;	-i)a.	0dd;;	-i)a.	0G	-ia	0g;;	-i)a.	0b	-ia.	0gg	-i)a.
*	*	*	*	*	*	*	*	*	*Xij	*	*	*	*	*	*
=75-	=75-	=75-	=75-	=75-	=75-	=75-	=75-	=75-	=75-	=75-	=75-	=75-	=75-	=75-	=75-
.	.	.	.	.	.	.	.	.	.	.	.	.	.	.	.
==	==	==	==	==	==	==	==	==	==	==	==	==	==	==	==
*-	*-	*-	*-	*-	*-	*-	*-	*-	*-	*-	*-	*-	*-	*-	*-
!!!system-decoration: [(s1,s2,s3,s4)][(s5,s6,s7,s8)]
!!!RDF**kern: > = above
!!!RDF**kern: < = below
!!!AIN: 8 empty
!!!ENC: Katarzyna Serwa
!!!END: 2021-10-21
!!!ENC: Filip Voros
!!!END: 2021-10-15
